!!!XEN: Weeping for my love
!!!AGN: Love song
!!!COM: Anonymous
!!!CNT: Native American -- Ojibway
!!!TXO: Ojibway
!!!MLC: Lac du Flambeau reservation, northern Wisconsin, U.S.A.
!!!MRD: 1909-1912///
!!!MPN: Mec'kawiga'bau ("Stands firmly")
**kern
*MM110
*Imale
*k[b-e-a-d-g-c-]
*clefG2
*M2/4
4b-
=1
[4ee-
16.ee-]
32ff
8ee-
=2
8.b-
16b-
4ee-
=3
[2b-
=4
4b-]
4ee-
=5
[4b-
16.b-]
32cc-
8b-
=6
8.a-
16g-
4b-
=7
[2a-
=8
4a-]
4ee-
=9
[4xa-
16.a-]
32b-
8a-
=10
8.g-
16e-
4g-
=11
*M3/4
2.e-
=12
*M2/4
4ee-
4dd-
=13
4.ee-
8b-
=14
4ee-
4b-
=15
[2a-
=16
4.a-]
16b-
16b-
=17
*M3/4
4..ee-
16ff
4ee-
=18
4dd-
4cc-
4ee-
=19
4.a-
8e-
qg-
4g-
=20
[2e-
=21
4e-]
4e-
=22
4a-
8a-
16b-
16a-
=23
8.g-
16e-
4g-
=24
[2e-
=25
4e-]
==
*-
!!!OCL: Frances Densmore
!!!YOR: Chippewa [i.e., Ojibway] Music--II, Bulletin 53 of the Bureau of American Ethnology, Smitsonian Institution
!!!ONM: 110
!!!PPG: 220
!!!PUB: published
!!!PPR: Government Printing Office
!!!PPP: Washington, D.C.
!!!PDT: 1912///
!!!EST: missing clef changes, text, drum tempo, and drum part
!!!YEC: Copyright 1998 Paul von Hippel
!!!YEM: Rights to all derivate electronic formats reserved.
!!!EFL: 34/42
